<?xml version="1.0" encoding="UTF-8"?>
<map version="1.8" tiledversion="1.8.2" orientation="orthogonal" renderorder="right-down" width="20" height="23" tilewidth="8" tileheight="8" infinite="0" nextlayerid="2" nextobjectid="1">
 <tileset firstgid="1" source="banterhouse-00.tsx"/>
 <layer id="1" name="Tile Layer 1" width="20" height="23">
  <data encoding="csv">
5,2,2,2,2,2,2,2,2,2,2,2,2,2,2,2,2,2,2,6,
3,14,14,14,14,14,14,14,14,14,14,14,14,14,14,14,14,14,14,4,
3,14,14,14,14,14,14,14,14,14,14,14,14,14,14,14,14,14,14,4,
3,14,14,14,14,14,14,14,14,14,14,14,14,14,14,14,14,14,14,4,
3,14,14,14,14,14,14,14,14,14,14,14,14,14,14,14,14,14,14,4,
3,14,14,14,14,14,14,13,13,14,14,14,14,14,12,12,14,14,14,4,
3,14,14,14,11,12,9,9,10,14,14,14,14,9,9,9,14,14,14,4,
3,14,14,14,11,12,9,10,9,14,14,14,14,10,9,9,14,14,14,4,
3,14,14,14,14,14,14,14,14,14,14,14,14,14,14,14,14,14,14,4,
3,14,14,14,14,14,14,14,14,14,14,14,14,14,14,14,14,14,14,4,
3,14,14,14,14,14,14,14,14,14,14,14,14,14,14,14,14,14,14,4,
3,14,14,14,14,14,14,14,14,14,14,14,14,14,14,14,14,14,14,4,
3,14,14,14,14,14,14,14,14,14,14,14,14,14,14,14,14,14,14,4,
3,14,14,14,14,13,9,9,10,14,14,14,14,10,10,10,14,14,14,4,
3,14,14,14,14,13,9,9,9,14,14,14,14,10,9,9,14,14,14,4,
3,14,14,14,14,11,11,11,11,14,14,14,14,14,14,14,14,14,14,4,
3,14,14,14,14,14,14,14,14,14,14,14,14,14,14,14,14,14,14,4,
3,14,14,14,14,14,14,14,14,14,14,14,14,14,14,14,14,14,14,4,
3,14,14,14,14,14,14,14,14,14,14,14,14,14,14,14,14,14,14,4,
3,14,14,14,14,14,14,14,14,14,14,14,14,14,11,11,14,14,14,4,
11,14,14,14,14,11,11,11,14,14,14,14,14,14,14,14,14,14,14,4,
11,14,14,14,14,14,14,14,14,14,14,14,14,14,14,14,14,14,14,4,
3,1,1,1,1,1,1,1,1,1,1,1,1,1,1,1,1,1,1,8
</data>
 </layer>
</map>
