<?xml version="1.0" encoding="UTF-8"?>
<map version="1.8" tiledversion="1.8.2" orientation="orthogonal" renderorder="right-down" width="20" height="23" tilewidth="8" tileheight="8" infinite="0" nextlayerid="2" nextobjectid="1">
 <tileset firstgid="1" name="tileset-03" tilewidth="8" tileheight="8" tilecount="64" columns="16">
  <image source="../../../banterhouse/assets/tileset/tileset-03.png" width="128" height="32"/>
 </tileset>
 <layer id="1" name="Tile Layer 1" width="20" height="23">
  <data encoding="csv">
5,2,2,2,2,2,2,49,49,49,49,49,49,2,2,2,2,2,2,6,
3,49,49,49,49,49,49,49,49,49,49,49,49,49,49,49,49,49,49,4,
3,49,49,49,49,49,49,49,49,49,49,49,49,49,49,49,49,49,49,4,
3,49,49,49,49,49,49,49,49,49,49,49,49,49,49,49,49,49,49,4,
3,49,49,49,49,49,49,49,49,49,49,49,49,49,49,49,49,49,49,4,
3,49,49,49,49,49,49,49,49,49,49,49,49,49,49,49,49,49,49,4,
3,49,49,49,49,5,6,49,49,49,49,49,49,5,6,49,49,49,49,4,
49,49,49,49,49,7,8,49,49,49,49,49,49,7,8,49,49,49,49,49,
49,49,49,49,49,49,49,49,34,34,34,34,49,49,49,49,49,49,49,49,
49,49,49,49,49,49,49,49,34,34,34,34,49,49,49,49,49,49,49,49,
49,49,49,49,49,49,49,49,34,34,34,34,49,49,49,49,49,49,49,49,
49,49,49,49,49,49,49,49,34,34,34,34,49,49,49,49,49,49,49,49,
49,49,49,49,49,49,49,49,34,34,34,34,49,49,49,49,49,49,49,49,
3,49,49,49,49,5,6,49,49,49,49,49,49,5,6,49,49,49,49,4,
3,49,49,49,49,7,8,49,49,49,49,49,49,7,8,49,49,49,49,4,
3,49,49,49,49,49,49,49,49,49,49,49,49,49,49,49,49,49,49,4,
3,49,49,49,49,49,49,49,49,49,49,49,49,49,49,49,49,49,49,4,
3,49,49,49,49,49,49,49,49,49,49,49,49,49,49,49,49,49,49,4,
3,49,49,49,49,49,49,49,49,49,49,49,49,49,49,49,49,49,49,4,
3,49,49,49,49,49,49,49,49,49,49,49,49,49,33,33,33,33,49,4,
3,49,49,49,49,49,49,49,49,49,49,49,49,49,33,33,33,33,49,4,
3,49,49,49,49,49,49,49,49,49,49,49,49,49,49,49,49,49,49,4,
7,1,1,1,1,1,1,49,49,49,49,49,49,1,1,1,1,1,1,8
</data>
 </layer>
</map>
