<?xml version="1.0" encoding="UTF-8"?>
<map version="1.8" tiledversion="1.8.2" orientation="orthogonal" renderorder="right-down" width="20" height="23" tilewidth="8" tileheight="8" infinite="0" nextlayerid="2" nextobjectid="1">
 <tileset firstgid="1" name="tileset-02" tilewidth="8" tileheight="8" tilecount="16" columns="16">
  <image source="tileset-02.png" width="128" height="8"/>
 </tileset>
 <layer id="1" name="Tile Layer 1" width="20" height="23">
  <data encoding="csv">
5,2,2,2,2,2,2,2,2,2,2,2,2,2,2,2,2,2,2,6,
3,16,16,16,16,16,16,16,16,16,16,16,16,16,16,16,16,16,16,4,
3,16,16,16,16,16,16,16,16,16,16,16,16,16,16,16,16,16,16,4,
3,16,16,16,16,16,16,16,16,16,16,16,16,16,16,16,16,16,16,4,
3,16,16,16,16,16,16,16,16,16,16,16,16,16,16,16,16,16,16,4,
3,16,16,16,16,16,16,16,16,16,16,16,16,16,16,16,16,16,16,4,
3,16,16,16,16,16,16,16,16,16,16,16,16,16,16,16,16,16,16,4,
3,16,16,16,16,16,16,16,16,16,16,16,16,16,16,16,16,16,16,4,
3,16,16,16,16,16,16,16,16,16,16,16,16,16,16,16,16,16,16,4,
3,16,16,16,16,16,16,16,16,16,16,16,16,16,16,16,16,16,16,4,
3,16,16,16,16,16,16,16,16,16,16,16,16,16,16,16,16,16,16,4,
3,16,16,16,16,16,16,16,16,16,16,16,16,16,16,16,16,16,16,4,
3,16,16,16,16,16,16,16,16,16,16,16,16,16,16,16,16,16,16,4,
3,16,16,16,16,16,16,16,16,16,16,16,16,16,16,16,16,16,16,4,
3,16,16,16,16,16,16,16,16,16,16,16,16,16,16,16,16,16,16,4,
3,16,16,16,16,16,16,16,16,16,16,16,16,16,16,16,16,16,16,4,
3,16,16,16,16,16,16,16,16,16,16,16,16,16,16,16,16,16,16,4,
3,16,16,16,16,16,16,16,16,16,16,16,16,16,16,16,16,16,16,4,
3,16,16,16,16,16,16,16,16,16,16,16,16,16,16,16,16,16,16,4,
3,16,16,16,16,16,16,16,16,16,16,16,16,16,16,16,16,16,16,4,
3,16,16,16,16,16,16,16,16,16,16,16,16,16,16,16,16,16,16,4,
3,16,16,16,16,16,16,16,16,16,16,16,16,16,16,16,16,16,16,4,
7,1,1,1,1,1,1,1,1,1,1,1,1,1,1,1,1,1,1,8
</data>
 </layer>
</map>
